src/images/shelf-4.svg

<svg xmlns="http://www.w3.org/2000/svg" width="829" height="138" fill="none" viewBox="0 0 829 138"><g clip-path="url(#clip0)"><path fill="#F7A501" fill-rule="evenodd" stroke="#F7A501" stroke-linecap="round" stroke-linejoin="round" stroke-width="3" d="M1.28784 1.28838H826.493V42.5591H1.28784V1.28838Z" clip-rule="evenodd"/><path fill="#35416B" fill-rule="evenodd" stroke="#35416B" stroke-linecap="round" stroke-linejoin="round" stroke-width="3" d="M1.88879 41.7861L827.712 43.4352L795.465 58.2858L38.8756 58.7152L1.88879 41.7861Z" clip-rule="evenodd"/><path fill="#35416B" fill-rule="evenodd" stroke="#35416B" stroke-linecap="round" stroke-linejoin="round" stroke-width="3" d="M127.496 123.786L116.223 90.8128L104.985 57.8563C103.199 52.6256 106.127 48.4083 111.527 48.4083L126.887 48.1678C128.438 48.1137 129.983 48.3893 131.42 48.9763C132.857 49.5633 134.154 50.4485 135.224 51.5734C136.294 52.6984 137.113 54.0374 137.628 55.5024C138.143 56.9674 138.342 58.5249 138.211 60.0723L134.013 123.829C132.184 129.017 129.282 129.017 127.496 123.786Z" clip-rule="evenodd"/><path fill="#35416B" fill-rule="evenodd" stroke="#35416B" stroke-linecap="round" stroke-linejoin="round" stroke-width="3" d="M725.02 120.634L736.292 87.6606L747.565 54.6869C749.351 49.4561 746.423 45.2389 741.023 45.2389L725.672 44.9898C724.12 44.9371 722.574 45.2138 721.137 45.8018C719.699 46.3897 718.403 47.2755 717.332 48.401C716.261 49.5264 715.441 50.8659 714.925 52.3313C714.409 53.7966 714.21 55.3547 714.339 56.9029L718.546 120.66C720.332 125.865 723.234 125.865 725.02 120.634Z" clip-rule="evenodd"/></g><path fill="#35416B" fill-rule="evenodd" stroke="#35416B" stroke-linecap="round" stroke-linejoin="round" stroke-width="3" d="M128.035 131.803L116.762 98.8293L105.524 65.8729C103.738 60.6421 106.666 56.4248 112.066 56.4248L127.426 56.1843C128.977 56.1303 130.522 56.4058 131.959 56.9928C133.396 57.5799 134.693 58.4651 135.763 59.59C136.833 60.7149 137.652 62.054 138.167 63.519C138.682 64.9839 138.881 66.5415 138.75 68.0889L134.552 131.846C132.723 137.034 129.821 137.034 128.035 131.803Z" clip-rule="evenodd"/><path fill="#35416B" fill-rule="evenodd" stroke="#35416B" stroke-linecap="round" stroke-linejoin="round" stroke-width="3" d="M725.559 128.651L736.832 95.6771L748.104 62.7035C749.89 57.4727 746.962 53.2554 741.562 53.2554L726.211 53.0063C724.659 52.9536 723.113 53.2304 721.676 53.8183C720.238 54.4062 718.942 55.2921 717.871 56.4175C716.8 57.5429 715.98 58.8824 715.464 60.3478C714.948 61.8132 714.749 63.3713 714.878 64.9195L719.085 128.676C720.871 133.882 723.773 133.882 725.559 128.651Z" clip-rule="evenodd"/><defs><clipPath id="clip0"><rect width="829" height="129" fill="#fff"/></clipPath></defs></svg>

<svg fill="none" viewBox="0 0 829 138"><g fill-rule="evenodd" stroke-linecap="round" stroke-linejoin="round" stroke-width="3" clip-path="url(#clip0)" clip-rule="evenodd"><path fill="#F7A501" stroke="#F7A501" d="M1.288 1.288h825.205V42.56H1.288V1.29z"/><path fill="#35416B" stroke="#35416B" d="M1.889 41.786l825.823 1.65-32.247 14.85-756.59.43L1.89 41.785z"/><path fill="#35416B" stroke="#35416B" d="M127.496 123.786l-11.273-32.973-11.238-32.957c-1.786-5.23 1.142-9.448 6.542-9.448l15.36-.24a10.975 10.975 0 0110.741 7.334c.515 1.465.714 3.023.583 4.57l-4.198 63.757c-1.829 5.188-4.731 5.188-6.517-.043zm597.524-3.152l11.272-32.973 11.273-32.974c1.786-5.23-1.142-9.448-6.542-9.448l-15.351-.25a10.991 10.991 0 00-8.34 3.412 11 11 0 00-2.993 8.502l4.207 63.757c1.786 5.205 4.688 5.205 6.474-.026z"/></g><path fill="#35416B" fill-rule="evenodd" stroke="#35416B" stroke-linecap="round" stroke-linejoin="round" stroke-width="3" d="M128.035 131.803l-11.273-32.974-11.238-32.956c-1.786-5.23 1.142-9.448 6.542-9.448l15.36-.24a10.977 10.977 0 0110.741 7.334c.515 1.465.714 3.023.583 4.57l-4.198 63.757c-1.829 5.188-4.731 5.188-6.517-.043zm597.524-3.152l11.273-32.974 11.272-32.974c1.786-5.23-1.142-9.448-6.542-9.448l-15.351-.249a10.993 10.993 0 00-8.34 3.411 11 11 0 00-2.993 8.502l4.207 63.757c1.786 5.206 4.688 5.206 6.474-.025z" clip-rule="evenodd"/><defs><clipPath id="clip0"><path fill="#fff" d="M0 0h829v129H0z"/></clipPath></defs></svg>
